app/components/SocialMediaIcon/assets/icon-twitter.svg

<?xml version="1.0" encoding="UTF-8"?>
<svg width="24px" height="24px" viewBox="0 0 24 24" version="1.1" xmlns="http://www.w3.org/2000/svg" xmlns:xlink="http://www.w3.org/1999/xlink">
    <!-- Generator: Sketch 43.2 (39069) - http://www.bohemiancoding.com/sketch -->
    <title>icon-twitter</title>
    <desc>Created with Sketch.</desc>
    <defs></defs>
    <g id="Page-1" stroke="none" stroke-width="1" fill="none" fill-rule="evenodd">
        <g id="Group-12">
            <rect id="Rectangle-113" opacity="0.1" x="0" y="0" width="24" height="24"></rect>
            <path d="M23,5.11647098 C22.190541,5.47545265 21.3207286,5.71815355 20.4076228,5.82719192 C21.3395589,5.26864187 22.055269,4.38402282 22.3922016,3.33009254 C21.5201361,3.84736091 20.5542412,4.22291964 19.5260617,4.42538498 C18.7027616,3.54816928 17.5297341,3 16.2315739,3 C13.7387395,3 11.7178682,5.02095175 11.7178682,7.51346428 C11.7178682,7.8672958 11.7577819,8.21171221 11.8347123,8.54204616 C8.08355097,8.35382421 4.75775998,6.55690406 2.53160686,3.82619701 C2.14309229,4.49281978 1.92050916,5.26815904 1.92050916,6.0953217 C1.92050916,7.66120926 2.71733421,9.04273748 3.92842459,9.8521965 C3.1885731,9.8287794 2.49257837,9.62567029 1.88405574,9.28761111 C1.88373386,9.30644135 1.88365339,9.32535206 1.88365339,9.34434325 C1.88365339,11.5312265 3.43948206,13.3555068 5.50429057,13.7701745 C5.125513,13.873258 4.72677859,13.9283807 4.31516881,13.9283807 C4.0242657,13.9283807 3.74157065,13.9001353 3.46595706,13.8474268 C4.04035993,15.6406452 5.70723874,16.9455649 7.68232196,16.9820988 C6.13751783,18.1926259 4.19140422,18.91413 2.07670361,18.91413 C1.71241084,18.91413 1.35310728,18.8928052 1,18.8511211 C2.99753466,20.1317385 5.36998427,20.8789129 7.91890706,20.8789129 C16.2210322,20.8789129 20.760891,14.001368 20.760891,8.03684846 C20.760891,7.84114269 20.7564651,7.64648305 20.7478547,7.45295 C21.6296573,6.81658437 22.3948572,6.02161015 23,5.11647098" id="Fill-1" fill="#EEEEEE"></path>
        </g>
    </g>
</svg>

<svg width="24" height="24" xmlns="http://www.w3.org/2000/svg"><g fill="none" fill-rule="evenodd"><path opacity=".1" d="M0 0h24v24H0z"/><path d="M23 5.116c-.81.36-1.68.602-2.592.711a4.526 4.526 0 0 0 1.984-2.497 9.036 9.036 0 0 1-2.866 1.095 4.514 4.514 0 0 0-7.691 4.117 12.814 12.814 0 0 1-9.303-4.716 4.492 4.492 0 0 0-.611 2.27c0 1.565.796 2.947 2.007 3.756a4.495 4.495 0 0 1-2.044-.564v.056a4.516 4.516 0 0 0 3.62 4.426 4.523 4.523 0 0 1-2.038.077 4.518 4.518 0 0 0 4.216 3.135 9.057 9.057 0 0 1-5.605 1.932c-.365 0-.724-.021-1.077-.063a12.776 12.776 0 0 0 6.919 2.028C16.22 20.879 20.76 14 20.76 8.037c0-.196-.005-.39-.013-.584A9.173 9.173 0 0 0 23 5.116" fill="#EEE"/></g></svg>
